src/actions/32/align-horizontal-right-to-anchor.svg

<svg viewBox="0 0 32 32" xmlns="http://www.w3.org/2000/svg">
 <defs>
  <style type="text/css">.ColorScheme-Text {
        color:#2e3440;
      }</style>
 </defs>
 <path class="ColorScheme-Text" d="m4 4v10h10v-10h-10zm14 0v24h2v-24h-2zm4 0v10h6v-10h-6zm-17 1h8v8h-8v-8zm-1 13v10h12v-10h-12zm1 1h10v8h-10v-8z" fill="currentColor"/>
</svg>

<svg xmlns="http://www.w3.org/2000/svg" viewBox="0 0 32 32">
  <defs
     id="defs3051">
    <style
       type="text/css"
       id="current-color-scheme">
      .ColorScheme-Text {
        color:#2e3440;
      }
      </style>
  </defs>
  <path
     style="fill:currentColor;fill-opacity:1;stroke:none" 
     d="M 4 4 L 4 14 L 14 14 L 14 4 L 4 4 z M 18 4 L 18 28 L 20 28 L 20 4 L 18 4 z M 22 4 L 22 14 L 28 14 L 28 4 L 22 4 z M 5 5 L 13 5 L 13 13 L 5 13 L 5 5 z M 4 18 L 4 28 L 16 28 L 16 18 L 4 18 z M 5 19 L 15 19 L 15 27 L 5 27 L 5 19 z "
     id="path8" 
     class="ColorScheme-Text"
     />
</svg>
